svgs/regular/menorah.svg

<svg xmlns="http://www.w3.org/2000/svg" viewBox="0 0 640 512"><!-- Font Awesome Pro 6.0.0-alpha2 by @fontawesome - https://fontawesome.com License - https://fontawesome.com/license (Commercial License) --><path d="M416 96C433.625 96 448 81.625 448 64S416 0 416 0S384 46.375 384 64S398.375 96 416 96ZM512 128C498.746 128 488 138.744 488 152V288H536V152C536 138.744 525.254 128 512 128ZM608 96C625.625 96 640 81.625 640 64S608 0 608 0S576 46.375 576 64S590.375 96 608 96ZM512 96C529.625 96 544 81.625 544 64S512 0 512 0S480 46.375 480 64S494.375 96 512 96ZM320 96C337.625 96 352 81.625 352 64S320 0 320 0S288 46.375 288 64S302.375 96 320 96ZM416 128C402.746 128 392 138.744 392 152V288H440V152C440 138.744 429.254 128 416 128ZM32 96C49.625 96 64 81.625 64 64S32 0 32 0S0 46.375 0 64S14.375 96 32 96ZM616 128C602.746 128 592 138.744 592 152V280C592 302.092 574.092 320 552 320H344V152C344 138.744 333.254 128 320 128S296 138.744 296 152V320H88C65.908 320 48 302.092 48 280V152C48 138.744 37.254 128 24 128S0 138.744 0 152V280C0 328.6 39.398 368 88 368H296V464H152C138.746 464 128 474.744 128 488C128 501.254 138.746 512 152 512H488C501.254 512 512 501.254 512 488C512 474.744 501.254 464 488 464H344V368H552C600.602 368 640 328.6 640 280V152C640 138.744 629.254 128 616 128ZM224 96C241.625 96 256 81.625 256 64S224 0 224 0S192 46.375 192 64S206.375 96 224 96ZM128 128C114.746 128 104 138.744 104 152V288H152V152C152 138.744 141.254 128 128 128ZM128 96C145.625 96 160 81.625 160 64S128 0 128 0S96 46.375 96 64S110.375 96 128 96ZM224 128C210.746 128 200 138.744 200 152V288H248V152C248 138.744 237.254 128 224 128Z"/></svg>

<svg xmlns="http://www.w3.org/2000/svg" viewBox="0 0 640 512"><!-- Font Awesome Pro 5.15.1 by @fontawesome - https://fontawesome.com License - https://fontawesome.com/license (Commercial License) --><path d="M416 96c17.67 0 32-14.33 32-32S416 0 416 0s-32 46.33-32 64 14.33 32 32 32zm-96 0c17.67 0 32-14.33 32-32S320 0 320 0s-32 46.33-32 64 14.33 32 32 32zm200 32h-16c-8.84 0-16 7.16-16 16v144h48V144c0-8.84-7.16-16-16-16zm-8-32c17.67 0 32-14.33 32-32S512 0 512 0s-32 46.33-32 64 14.33 32 32 32zm96 0c17.67 0 32-14.33 32-32S608 0 608 0s-32 46.33-32 64 14.33 32 32 32zm-184 32h-16c-8.84 0-16 7.16-16 16v144h48V144c0-8.84-7.16-16-16-16zM32 96c17.67 0 32-14.33 32-32S32 0 32 0 0 46.33 0 64s14.33 32 32 32zm104 32h-16c-8.84 0-16 7.16-16 16v144h48V144c0-8.84-7.16-16-16-16zm88-32c17.67 0 32-14.33 32-32S224 0 224 0s-32 46.33-32 64 14.33 32 32 32zm400 32h-16c-8.84 0-16 7.16-16 16v136c0 22.09-17.91 40-40 40H344V144c0-8.84-7.16-16-16-16h-16c-8.84 0-16 7.16-16 16v176H88c-22.09 0-40-17.91-40-40V144c0-8.84-7.16-16-16-16H16c-8.84 0-16 7.16-16 16v136c0 48.6 39.4 88 88 88h208v96H112c-8.84 0-16 7.16-16 16v16c0 8.84 7.16 16 16 16h416c8.84 0 16-7.16 16-16v-16c0-8.84-7.16-16-16-16H344v-96h208c48.6 0 88-39.4 88-88V144c0-8.84-7.16-16-16-16zM128 96c17.67 0 32-14.33 32-32S128 0 128 0 96 46.33 96 64s14.33 32 32 32zm104 32h-16c-8.84 0-16 7.16-16 16v144h48V144c0-8.84-7.16-16-16-16z"/></svg>
